icons/svg/mirror_12.svg

<?xml version="1.0" encoding="UTF-8"?>
<svg width="12px" height="12px" viewBox="0 0 12 12" version="1.1" xmlns="http://www.w3.org/2000/svg" xmlns:xlink="http://www.w3.org/1999/xlink">
    <!-- Generator: Sketch 57.1 (83088) - https://sketch.com -->
    <title>mirror_12</title>
    <desc>Created with Sketch.</desc>
    <g id="New-Icon" stroke="none" stroke-width="1" fill="none" fill-rule="evenodd">
        <g id="mirror_12" fill="#171B1F">
            <path d="M5.9999,0.0002 C6.24523333,0.0002 6.44948025,0.177187654 6.49183964,0.410361866 L6.4999,0.5002 L6.4999,11.5002 C6.4999,11.7762 6.2759,12.0002 5.9999,12.0002 C5.75456667,12.0002 5.55031975,11.8232123 5.50796036,11.5900381 L5.4999,11.5002 L5.4999,0.5002 C5.4999,0.2242 5.7239,0.0002 5.9999,0.0002 Z M4.1499,3.0232 C4.32818571,3.07977143 4.45798163,3.22964898 4.4914277,3.40859942 L4.4999,3.5002 L4.4999,8.5002 C4.4999,8.74553333 4.32291235,8.94978025 4.08973813,8.99213964 L3.9999,9.0002 L0.4999,9.0002 C0.3129,9.0002 0.1429,8.8962 0.0569,8.7312 C-0.0156,8.59286667 -0.0186555556,8.43161667 0.0442611111,8.29316759 L0.0899,8.2132 L3.5899,3.2132 C3.7159,3.0352 3.9419,2.9582 4.1499,3.0232 Z M7.8499,3.0232 C8.0579,2.9572 8.2849,3.0342 8.4099,3.2132 L8.4099,3.2132 L11.9099,8.2132 C12.0169,8.3662 12.0299,8.5652 11.9429,8.7312 C11.8569,8.8962 11.6869,9.0002 11.4999,9.0002 L11.4999,9.0002 L7.9999,9.0002 C7.7239,9.0002 7.4999,8.7762 7.4999,8.5002 L7.4999,8.5002 L7.4999,3.5002 C7.4999,3.2822 7.6419,3.0892 7.8499,3.0232 Z M3.4999,5.0862 L1.4599,8.0002 L3.4999,8.0002 L3.4999,5.0862 Z M8.4999,5.0862 L8.4999,8.0002 L10.5399,8.0002 L8.4999,5.0862 Z" id="fill"></path>
        </g>
    </g>
</svg>

<svg width="12" height="12" xmlns="http://www.w3.org/2000/svg"><path d="M6 0a.5.5 0 01.492.41L6.5.5v11a.5.5 0 01-.992.09L5.5 11.5V.5A.5.5 0 016 0zM4.15 3.023a.502.502 0 01.341.386L4.5 3.5v5a.5.5 0 01-.41.492L4 9H.5a.5.5 0 01-.456-.707l.046-.08 3.5-5a.503.503 0 01.56-.19zm3.7 0a.5.5 0 01.56.19l3.5 5A.5.5 0 0111.5 9H8a.5.5 0 01-.5-.5v-5c0-.218.142-.41.35-.477zM3.5 5.086L1.46 8H3.5V5.086zm5 0V8h2.04L8.5 5.086z" fill="#171B1F" fill-rule="evenodd"/></svg>
